assets/img/braze_icons/face-id-square.svg

<svg fill="none" height="24" viewBox="0 0 24 24" width="24" xmlns="http://www.w3.org/2000/svg"><path clip-rule="evenodd" d="m17.8385 2h-11.67704c-.52713-.00002-.98192-.00003-1.35649.03057-.39534.0323-.78856.10362-1.16694.29641-.56449.28762-1.02343.74656-1.31105 1.31105-.19279.37838-.26411.7716-.29641 1.16694-.0306.37457-.03059.82932-.03057 1.35645v11.67708c-.00002.5272-.00003.982.03057 1.3565.0323.3954.10362.7886.29641 1.167.28762.5645.74656 1.0234 1.31105 1.311.37838.1928.7716.2641 1.16694.2964.37457.0306.82933.0306 1.35647.0306h11.67716c.5271 0 .9819 0 1.3564-.0306.3954-.0323.7886-.1036 1.167-.2964.5645-.2876 1.0234-.7465 1.311-1.311.1928-.3784.2641-.7716.2964-1.167.0306-.3745.0306-.8293.0306-1.3564v-11.67716c0-.52714 0-.9819-.0306-1.35647-.0323-.39534-.1036-.78856-.2964-1.16694-.2876-.56449-.7465-1.02343-1.311-1.31105-.3784-.19279-.7716-.26411-1.167-.29641-.3745-.0306-.8293-.03059-1.3565-.03057zm-9.3385 6c0-.55228-.44771-1-1-1-.55228 0-1 .44772-1 1v1.5c0 .5523.44772 1 1 1 .55229 0 1-.4477 1-1zm9 0c0-.55228-.4477-1-1-1s-1 .44772-1 1v1.5c0 .5523.4477 1 1 1s1-.4477 1-1zm-5-1c.5523 0 1 .44772 1 1v3.1001c0 1.3523-1.1477 2.5-2.5 2.5-.5523 0-1-.4477-1-1s.4477-1 1-1c.2477 0 .5-.2523.5-.5v-3.1001c0-.55228.4477-1 1-1zm-3.0927 7.4928c-.39052-.3905-1.02369-.3905-1.41421 0-.39052.3906-.39052 1.0237 0 1.4143 2.19051 2.1905 5.72371 2.1905 7.91421 0 .3905-.3906.3905-1.0237 0-1.4143-.3905-.3905-1.0237-.3905-1.4142 0-1.4095 1.4095-3.6763 1.4095-5.0858 0z" fill="#801ed7" fill-rule="evenodd"/></svg>

<svg width="24" height="24" viewBox="0 0 24 24" fill="none" xmlns="http://www.w3.org/2000/svg">
<path fill-rule="evenodd" clip-rule="evenodd" d="M17.8385 2H6.16146C5.63433 1.99998 5.17954 1.99997 4.80497 2.03057C4.40963 2.06287 4.01641 2.13419 3.63803 2.32698C3.07354 2.6146 2.6146 3.07354 2.32698 3.63803C2.13419 4.01641 2.06287 4.40963 2.03057 4.80497C1.99997 5.17954 1.99998 5.63429 2 6.16142V17.8385C1.99998 18.3657 1.99997 18.8205 2.03057 19.195C2.06287 19.5904 2.13419 19.9836 2.32698 20.362C2.6146 20.9265 3.07354 21.3854 3.63803 21.673C4.01641 21.8658 4.40963 21.9371 4.80497 21.9694C5.17954 22 5.6343 22 6.16144 22H17.8386C18.3657 22 18.8205 22 19.195 21.9694C19.5904 21.9371 19.9836 21.8658 20.362 21.673C20.9265 21.3854 21.3854 20.9265 21.673 20.362C21.8658 19.9836 21.9371 19.5904 21.9694 19.195C22 18.8205 22 18.3657 22 17.8386V6.16144C22 5.6343 22 5.17954 21.9694 4.80497C21.9371 4.40963 21.8658 4.01641 21.673 3.63803C21.3854 3.07354 20.9265 2.6146 20.362 2.32698C19.9836 2.13419 19.5904 2.06287 19.195 2.03057C18.8205 1.99997 18.3657 1.99998 17.8385 2ZM8.5 8C8.5 7.44772 8.05229 7 7.5 7C6.94772 7 6.5 7.44772 6.5 8V9.5C6.5 10.0523 6.94772 10.5 7.5 10.5C8.05229 10.5 8.5 10.0523 8.5 9.5V8ZM17.5 8C17.5 7.44772 17.0523 7 16.5 7C15.9477 7 15.5 7.44772 15.5 8V9.5C15.5 10.0523 15.9477 10.5 16.5 10.5C17.0523 10.5 17.5 10.0523 17.5 9.5V8ZM12.5 7C13.0523 7 13.5 7.44772 13.5 8V11.1001C13.5 12.4524 12.3523 13.6001 11 13.6001C10.4477 13.6001 10 13.1524 10 12.6001C10 12.0478 10.4477 11.6001 11 11.6001C11.2477 11.6001 11.5 11.3478 11.5 11.1001V8C11.5 7.44772 11.9477 7 12.5 7ZM9.4073 14.4928C9.01678 14.1023 8.38361 14.1023 7.99309 14.4928C7.60257 14.8834 7.60257 15.5165 7.99309 15.9071C10.1836 18.0976 13.7168 18.0976 15.9073 15.9071C16.2978 15.5165 16.2978 14.8834 15.9073 14.4928C15.5168 14.1023 14.8836 14.1023 14.4931 14.4928C13.0836 15.9023 10.8168 15.9023 9.4073 14.4928Z" fill="#801ED7"/>
</svg>
